assets/sprite/svg/faq__badge_marshmellow.svg

<svg width="90" height="104" viewBox="0 0 90 104" fill="none" xmlns="http://www.w3.org/2000/svg">
<path d="M84.7894 21.1219L75.2997 63.4115C73.1609 68.8592 69.5278 73.8189 64.7566 78.0653C64.1494 78.6159 63.4937 79.1557 62.8434 79.6712C59.244 82.5524 55.0985 85.0312 50.4959 87.0512C50.1562 87.2039 49.8165 87.3567 49.4822 87.4852C49.1721 87.6191 48.8917 87.7343 48.5816 87.8682C44.6372 89.4508 40.3891 90.6854 35.9208 91.5399C29.8355 87.1216 24.7566 81.9623 20.8799 76.4367C20.4742 75.8624 20.074 75.2637 19.6737 74.6651C19.3353 74.1312 19.0157 73.627 18.6773 73.0932C17.955 71.888 17.2865 70.6695 16.6962 69.4431C16.3662 68.7585 16.055 68.1035 15.7546 67.4001C13.2043 61.409 12.012 55.2647 12.4088 49.299L21.8985 7.0094C22.7551 7.04898 23.582 7.10734 24.4332 7.17114C44.3284 8.58269 63.8379 12.9606 82.4528 20.1906C83.22 20.5153 84.0168 20.8214 84.7894 21.1219Z" fill="#453F4B"/>
<path d="M63.7555 81.9635C60.065 84.9048 55.7742 87.4567 51.0559 89.5306C50.716 89.6836 50.3518 89.8311 50.0119 89.984C49.7016 90.1181 49.3969 90.228 49.0866 90.3622C45.0323 91.9738 40.6444 93.256 36.0715 94.1145C29.8065 89.576 24.578 84.2767 20.5766 78.6161C20.152 78.0114 19.7517 77.4122 19.3568 76.7888C19.0183 76.2544 18.6798 75.72 18.3468 75.1613C17.6054 73.9253 16.9181 72.6759 16.2846 71.4131C15.9303 70.7223 15.6299 70.0182 15.2998 69.3329C15.3107 69.2844 15.3458 69.2413 15.3513 69.2171C17.1857 64.5604 21.0033 60.1449 28.3347 57.4349C28.3347 57.4349 43.3657 55.0263 45.9673 46.9506C45.9673 46.9506 49.5126 54.1898 43.7823 62.0219C43.7823 62.0219 47.6419 63.321 49.7 58.689C49.7 58.689 53.8884 63.8567 49.3101 73.7046C49.3101 73.7046 53.6859 70.4332 56.4735 61.0749C56.4735 61.0749 62.4673 71.5887 63.7476 81.8854C63.7234 81.8799 63.7422 81.9096 63.7555 81.9635Z" fill="#E0516B" fill-opacity="0.59"/>
<path d="M50.5332 87.0532C50.5169 87.1257 50.4819 87.1686 50.471 87.217C50.1316 87.3694 49.7922 87.5218 49.4582 87.6501C49.1484 87.7838 48.8683 87.8987 48.5585 88.0324C44.6179 89.6117 40.3737 90.8436 35.9094 91.6959C29.8584 87.2649 24.7776 82.1372 20.9033 76.62C20.4979 76.0464 20.0979 75.4487 19.6979 74.851C19.3597 74.3179 19.0403 73.8145 18.7021 73.2814C18.7317 73.2627 18.7668 73.2197 18.7722 73.1956C21.9275 69.7891 25.9149 69.1346 25.9149 69.1346C26.0767 72.0409 29.5424 74.1647 29.5424 74.1647C31.1 65.5232 41.19 64.5364 41.19 64.5364C37.7242 68.5335 38.6439 75.0895 38.6439 75.0895C41.3493 68.8136 46.3425 67.1911 46.3425 67.1911C45.595 71.3157 47.9984 76.0203 47.9984 76.0203C51.2702 81.2754 51.4821 84.7517 50.5332 87.0532Z" fill="#F06E85"/>
<path d="M64.7998 33.0737L61.4197 34.9882L58.9965 36.3792L56.5733 37.7701L49.9803 41.5347L47.0936 43.178L35.3092 49.9016L6.31761 68.6998C5.95152 67.4976 5.6393 66.282 5.38096 65.053L28.429 49.7324L45.1615 40.4534L48.0374 38.8585L54.8943 35.0513L55.9994 34.4338L57.6071 34.1836L60.6365 33.7178L64.7998 33.0737Z" fill="#B58065"/>
<path d="M63.0224 42.7105C64.3436 41.8736 63.3138 37.8789 60.7224 33.788C58.1311 29.6972 54.9593 27.0593 53.6382 27.8962C52.3171 28.7331 53.3468 32.7278 55.9382 36.8186C58.5296 40.9095 61.7013 43.5474 63.0224 42.7105Z" fill="#E2E2E2"/>
<path d="M74.8175 35.2398L65.4199 20.4044L53.6272 27.8746L63.0248 42.7099L74.8175 35.2398Z" fill="#E2E2E2"/>
<path d="M74.8057 35.2488C76.1268 34.4119 75.097 30.4172 72.5056 26.3263C69.9143 22.2355 66.7425 19.5976 65.4214 20.4345C64.1003 21.2713 65.13 25.2661 67.7214 29.3569C70.3128 33.4478 73.4845 36.0857 74.8057 35.2488Z" fill="#C4C4C4"/>
<path d="M69.1442 26.813L81.4239 21.9563L81.8819 22.4143L70.5115 29.3528L69.7406 28.926L69.1442 26.813Z" fill="#B58065"/>
<path d="M75.0534 80.0823C74.2948 81.0829 73.5121 82.078 72.6621 83.0327L55.1048 54.6331L47.0938 43.189L45.1863 40.4703L41.0654 34.5823L39.4449 32.2843L37.8487 29.9917L35.6299 26.8468L39.0939 29.2022L41.6335 30.9174L42.9799 31.8304L43.7151 32.8607L48.0563 38.8999L49.9747 41.5702L61.367 57.4382L75.0534 80.0823Z" fill="#9C6D55"/>
<path d="M42.0696 33.9885C46.1605 31.3971 48.7983 28.2254 47.9615 26.9043C47.1246 25.5831 43.1299 26.6129 39.039 29.2043C34.9481 31.7957 32.3103 34.9674 33.1471 36.2885C33.984 37.6096 37.9787 36.5799 42.0696 33.9885Z" fill="#E4E4E4"/>
<path d="M33.1452 36.2914L47.9805 26.8939L40.5103 15.1012L25.675 24.4987L33.1452 36.2914Z" fill="#E4E4E4"/>
<path d="M34.6077 22.2064C38.6985 19.615 41.3364 16.4433 40.4995 15.1221C39.6627 13.801 35.6679 14.8307 31.5771 17.4221C27.4862 20.0135 24.8483 23.1852 25.6852 24.5064C26.5221 25.8275 30.5168 24.7977 34.6077 22.2064Z" fill="#C4C4C4"/>
<path d="M34.3792 19.3253L25.3027 10.2388L32.0645 21.0455L32.9404 20.9876L34.3792 19.3253Z" fill="#9C6D55"/>
<path d="M17.7209 38.3614L23.9714 33.9964L29.8909 41.0923L22.1277 45.7303L17.7209 38.3614Z" fill="#FFFBD5"/>
<path d="M22.948 39.4832L23.3668 39.1008L23.7379 39.5016L23.229 39.9432L22.948 39.4832Z" fill="#FFCC4D"/>
<path d="M23.3665 37.6279L23.776 37.2867L24.1481 37.683L23.6551 38.0536L23.3665 37.6279Z" fill="#FFCC4D"/>
<path d="M22.5386 41.6673L22.9518 41.3101L23.3228 41.711L22.8383 42.158L22.5386 41.6673Z" fill="#FFCC4D"/>
<path d="M24.5845 39.9822L24.9877 39.6228L25.3687 40.0259L24.872 40.4702L24.5845 39.9822Z" fill="#FFCC4D"/>
<path d="M20.9832 39.042L21.402 38.6596L21.773 39.0604L21.2641 39.502L20.9832 39.042Z" fill="#FFCC4D"/>
<path d="M72.1632 44.8106L75.5106 51.5012L67.8566 56.3094L64.4383 48.1244L72.1632 44.8106Z" fill="#FFFBD5"/>
<path d="M70.403 49.735L70.724 50.1912L70.2585 50.4965L69.9035 49.9559L70.403 49.735Z" fill="#FFCC4D"/>
<path d="M72.1242 50.4387L72.3965 50.8839L71.9782 51.1999L71.6515 50.6656L72.1242 50.4387Z" fill="#FFCC4D"/>
<path d="M68.282 49.0999L68.5664 49.5479L68.1353 49.8609L67.8214 49.3295L68.282 49.0999Z" fill="#FFCC4D"/>
<path d="M69.653 51.313L69.974 51.7692L69.5085 52.0745L69.1535 51.5338L69.653 51.313Z" fill="#FFCC4D"/>
<path d="M71.0852 47.9827L71.3574 48.428L70.9392 48.7439L70.6125 48.2096L71.0852 47.9827Z" fill="#FFCC4D"/>
<path d="M87.6563 18.292C86.378 17.7507 85.07 17.2283 83.7808 16.7355C64.8467 9.35768 44.9534 4.89369 24.6824 3.47397C23.3062 3.36868 21.895 3.30639 20.5134 3.22531L18.9513 3.15462L8.71207 48.7846L8.70369 48.9354C8.40727 53.0918 8.82441 57.3574 9.90958 61.5949C10.1501 62.5647 10.439 63.5453 10.7577 64.5072C11.7081 67.417 12.971 70.2953 14.5035 73.1067C15.1341 74.2658 15.7945 75.4061 16.5329 76.5386C17.1344 77.4876 17.7655 78.4178 18.4263 79.3293C22.6033 85.1 28.0174 90.4615 34.4484 95.0337L35.0429 95.4469L35.0859 95.482L35.8538 95.3491C40.3885 94.535 44.7032 93.3409 48.7626 91.8096C54.0215 89.8098 58.821 87.2489 63.0126 84.221C65.8367 82.1836 68.4027 79.9356 70.6566 77.4904C71.3611 76.7327 72.0171 75.9641 72.6489 75.1901C75.2868 71.9407 77.3516 68.41 78.8027 64.6654L78.8596 64.5255L89.0988 18.8955L87.6563 18.292ZM75.2902 63.4193C72.862 69.5903 68.5387 75.1327 62.8006 79.7215C59.2315 82.5839 55.0922 85.0385 50.5685 87.0507C49.8946 87.3319 49.2449 87.6186 48.5468 87.8944C44.6031 89.4771 40.3854 90.693 35.9718 91.5342C29.9363 87.1271 24.8531 81.9925 20.9907 76.5213C20.2226 75.4077 19.4786 74.2995 18.7941 73.1537C17.6638 71.272 16.6656 69.369 15.8291 67.426C13.2255 61.4486 12.0149 55.275 12.4119 49.3096L21.9011 7.0219C22.7521 7.08567 23.5843 7.11978 24.4353 7.18355C44.3266 8.59437 63.8322 12.9714 82.4433 20.2004C83.2158 20.5009 84.0124 20.8069 84.7794 21.1316L75.2902 63.4193Z" fill="#7C7385"/>
</svg>

<svg width="90" height="104" fill="none" xmlns="http://www.w3.org/2000/svg"><path d="M84.79 21.122l-9.49 42.29c-2.14 5.447-5.772 10.407-10.543 14.653-.608.55-1.263 1.09-1.914 1.606-3.599 2.881-7.745 5.36-12.347 7.38-.34.153-.68.306-1.014.434-.31.134-.59.25-.9.383-3.945 1.583-8.193 2.817-12.661 3.672-6.085-4.418-11.164-9.578-15.041-15.103-.406-.575-.806-1.173-1.206-1.772l-.997-1.572a45.605 45.605 0 01-1.98-3.65c-.33-.684-.642-1.34-.942-2.043-2.55-5.991-3.743-12.135-3.346-18.101l9.49-42.29c.856.04 1.683.098 2.534.162a198.947 198.947 0 0158.02 13.02c.767.324 1.564.63 2.336.93z" fill="#453F4B"/><path d="M63.755 81.963c-3.69 2.942-7.98 5.494-12.7 7.568-.339.153-.703.3-1.043.453-.31.134-.615.244-.925.378a70.66 70.66 0 01-13.016 3.753c-6.264-4.539-11.493-9.838-15.494-15.499a45.867 45.867 0 01-1.22-1.827 69.937 69.937 0 01-1.01-1.628 56.792 56.792 0 01-2.062-3.748c-.355-.69-.655-1.395-.985-2.08.01-.049.046-.092.051-.116 1.835-4.657 5.652-9.072 12.984-11.782 0 0 15.03-2.409 17.632-10.484 0 0 3.546 7.239-2.185 15.07 0 0 3.86 1.3 5.918-3.332 0 0 4.188 5.168-.39 15.016 0 0 4.376-3.272 7.163-12.63 0 0 5.994 10.514 7.275 20.81-.025-.005-.006.025.008.078z" fill="#E0516B" fill-opacity=".59"/><path d="M50.533 87.053c-.016.073-.051.116-.062.164-.34.152-.679.305-1.013.433-.31.134-.59.249-.9.382-3.94 1.58-8.184 2.812-12.649 3.664-6.05-4.431-11.131-9.559-15.006-15.076a84.702 84.702 0 01-1.205-1.769l-.996-1.57a.188.188 0 00.07-.085c3.155-3.407 7.143-4.061 7.143-4.061.162 2.906 3.627 5.03 3.627 5.03 1.558-8.642 11.648-9.629 11.648-9.629-3.466 3.998-2.546 10.553-2.546 10.553 2.705-6.275 7.699-7.898 7.699-7.898-.748 4.125 1.655 8.83 1.655 8.83 3.272 5.254 3.484 8.73 2.535 11.032z" fill="#F06E85"/><path d="M64.8 33.074l-3.38 1.914-2.424 1.391-2.423 1.391-6.593 3.765-2.886 1.643-11.785 6.724L6.318 68.7a42.581 42.581 0 01-.937-3.647l23.048-15.32 16.732-9.28 2.876-1.595 6.857-3.807L56 34.434l1.608-.25 3.03-.466 4.163-.644z" fill="#B58065"/><path d="M63.022 42.71c1.322-.836.292-4.831-2.3-8.922-2.59-4.09-5.763-6.729-7.084-5.892-1.32.837-.291 4.832 2.3 8.923 2.592 4.09 5.763 6.728 7.084 5.892z" fill="#E2E2E2"/><path d="M74.817 35.24L65.42 20.404l-11.793 7.47 9.398 14.836 11.792-7.47z" fill="#E2E2E2"/><path d="M74.806 35.249c1.32-.837.291-4.832-2.3-8.923-2.592-4.09-5.763-6.728-7.085-5.892-1.32.837-.291 4.832 2.3 8.923 2.592 4.09 5.763 6.729 7.085 5.892z" fill="#C4C4C4"/><path d="M69.144 26.813l12.28-4.857.458.458-11.37 6.939-.771-.427-.597-2.113z" fill="#B58065"/><path d="M75.053 80.082a48.14 48.14 0 01-2.39 2.95L55.104 54.634 47.094 43.19l-1.908-2.719-4.12-5.888-1.621-2.298-1.596-2.292-2.22-3.145 3.465 2.355 2.54 1.715 1.346.913.735 1.03 4.341 6.04 1.919 2.67 11.392 15.868 13.686 22.644z" fill="#9C6D55"/><path d="M42.07 33.989c4.09-2.592 6.728-5.764 5.892-7.085-.837-1.32-4.832-.291-8.923 2.3-4.09 2.592-6.729 5.763-5.892 7.084.837 1.322 4.832.292 8.923-2.3z" fill="#E4E4E4"/><path d="M33.145 36.291l14.835-9.397L40.51 15.1 25.675 24.5l7.47 11.792z" fill="#E4E4E4"/><path d="M34.608 22.206c4.09-2.591 6.728-5.763 5.892-7.084-.837-1.321-4.832-.291-8.923 2.3-4.09 2.591-6.729 5.763-5.892 7.084.837 1.322 4.832.292 8.923-2.3z" fill="#C4C4C4"/><path d="M34.38 19.325l-9.077-9.086 6.762 10.806.875-.057 1.44-1.663z" fill="#9C6D55"/><path d="M17.72 38.361l6.251-4.365 5.92 7.096-7.763 4.638-4.407-7.369z" fill="#FFFBD5"/><path d="M22.948 39.483l.419-.382.37.4-.508.442-.281-.46zM23.366 37.628l.41-.341.372.396-.493.37-.289-.425zM22.539 41.667l.413-.357.37.401-.484.447-.3-.49zM24.584 39.982l.404-.36.38.404-.496.444-.288-.488zM20.983 39.042l.419-.382.371.4-.509.442-.28-.46z" fill="#FFCC4D"/><path d="M72.163 44.81l3.348 6.691-7.654 4.808-3.419-8.185 7.725-3.313z" fill="#FFFBD5"/><path d="M70.403 49.735l.321.456-.466.305-.355-.54.5-.221zM72.124 50.439l.273.445-.419.316-.326-.534.472-.227zM68.282 49.1l.284.448-.43.313-.315-.531.461-.23zM69.653 51.313l.321.456-.466.306-.355-.541.5-.221zM71.085 47.983l.272.445-.418.316-.326-.534.472-.227z" fill="#FFCC4D"/><path d="M87.656 18.292a118.498 118.498 0 00-3.875-1.557A201.404 201.404 0 0024.682 3.474c-1.376-.105-2.787-.168-4.169-.249l-1.562-.07-10.239 45.63-.008.15c-.297 4.157.12 8.422 1.206 12.66.24.97.529 1.95.848 2.912.95 2.91 2.213 5.788 3.746 8.6.63 1.159 1.29 2.3 2.029 3.432.601.949 1.232 1.879 1.893 2.79 4.177 5.771 9.591 11.133 16.022 15.705l.595.413.043.035.768-.133a73.204 73.204 0 0012.909-3.54c5.259-2 10.058-4.56 14.25-7.588 2.824-2.037 5.39-4.285 7.644-6.73a47.047 47.047 0 001.992-2.3c2.638-3.25 4.703-6.781 6.154-10.526l.057-.14 10.239-45.63-1.443-.603zM75.29 63.419C72.862 69.59 68.54 75.133 62.8 79.722c-3.569 2.862-7.708 5.317-12.231 7.329-.674.28-1.324.568-2.022.843-3.944 1.583-8.162 2.799-12.575 3.64-6.036-4.407-11.119-9.541-14.981-15.013-.768-1.113-1.512-2.222-2.197-3.367a48.013 48.013 0 01-2.965-5.728c-2.604-5.977-3.814-12.151-3.417-18.116l9.49-42.288c.85.064 1.682.098 2.533.162A198.878 198.878 0 0182.443 20.2c.773.3 1.57.607 2.336.932L75.29 63.419z" fill="#7C7385"/></svg>
